X: 40858
T: Treading The Labyrinth
R: strathspey
M: 4/4
K: Edorian
|:E>B A<G e>G B>G|A>c B<A E>G (3FED|E>B A<G f<e B2|B>A A>B D>E (3FED:|
|:E<e B<e (3gfe B2|B>A A>c d<e (3age|(3edB (3BAG (3AGE E>D|
D>E (3ABc (3deg f2|(3edB (3BAG (3AGE E>D|D>F (3FED E2 E2:|

